assets/images/svg/java.svg

<svg viewBox="0 0 48 48" xmlns="http://www.w3.org/2000/svg"><style>.a{fill:#f44336}.b{fill:#1565c0}</style><path d="M23.6 24.9c-.9-1.6-1.7-2.9-2.7-5.5-1.7-4.2 10.3-8 5.5-15.4 2.1 5.1-7.6 8.2-8.5 12.5-.8 3.9 5.7 8.4 5.7 8.4z" class="a"/><path d="M23.9 17.3c-.2 2.5 2.2 3.8 2.3 5.7 0 1.5-1.5 2.7-1.5 2.7s2.8-.5 3.6-2.8c1-2.5-1.8-4.3-1.5-6.3.2-1.9 6-5.5 6-5.5s-8.5.5-8.9 6.2z" class="a"/><path d="M32.1 25.1c1.7-.4 3.2.7 3.2 2 0 2.9-4 5.6-4 5.6s6.2-.7 6.2-5.5c0-3.1-3-3.9-5.4-2.1zM29.1 27.4s2-1.4 2.5-1.9c-4.8 1-15.7 1.1-15.7.3s3.6-1.7 3.6-1.7-7.8-.1-7.8 2.2c0 2.4 10.2 2.6 17.4 1.1z" class="b"/><path d="M27.9 29.6c-4.5 1.5-12.8 1-10.3-1-1.2 0-3 .9-3 1.9 0 1.8 9 3.3 15.6.5z" class="b"/><path d="M18.7 32.7c-1.6 0-2.7 1.1-2.7 1.9 0 2.4 9.8 2.6 13.6.2l-2.4-1.7c-2.9 1.3-10.2 1.5-8.5-.4z" class="b"/><path d="M36.3 36.6c0-.9-1.1-1.3-1.5-1.6 2.3 5.4-22.3 5-22.3 1.8 0-.7 1.8-1.4 3.5-1.1l-1.4-.8c-3.3-.5-5.6.9-5.6 2.1 0 5.5 27.3 5.3 27.3-.4z" class="b"/><path d="M39 38.6c-4.1 4.1-14.7 5.6-25.2 3.1 10.5 4.5 25.1 1.9 25.2-3.1z" class="b"/></svg>

<svg viewBox="0 0 48 48" xmlns="http://www.w3.org/2000/svg" xmlns:xlink= "http://www.w3.org/1999/xlink">
                            <style>
                                .a {
                                    fill: #F44336;
                                }

                                .b {
                                    fill: #1565C0;
                                }
                            </style>
                            <path d="M23.6 24.9C22.7 23.3 21.9 22 20.9 19.4 19.2 15.2 31.2 11.4 26.4 4 28.5 9.1 18.8 12.2 17.9 16.5 17.1 20.4 23.6 24.9 23.6 24.9Z"
                                class="a" />
                            <path d="M23.9 17.3C23.7 19.8 26.1 21.1 26.2 23 26.2 24.5 24.7 25.7 24.7 25.7 24.7 25.7 27.5 25.2 28.3 22.9 29.3 20.4 26.5 18.6 26.8 16.6 27 14.7 32.8 11.1 32.8 11.1 32.8 11.1 24.3 11.6 23.9 17.3Z"
                                class="a" />
                            <path d="M32.1 25.1C33.8 24.7 35.3 25.8 35.3 27.1 35.3 30 31.3 32.7 31.3 32.7 31.3 32.7 37.5 32 37.5 27.2 37.5 24.1 34.5 23.3 32.1 25.1Z"
                                class="b" />
                            <path d="M29.1 27.4C29.1 27.4 31.1 26 31.6 25.5 26.8 26.5 15.9 26.6 15.9 25.8 15.9 25 19.5 24.1 19.5 24.1 19.5 24.1 11.7 24 11.7 26.3 11.7 28.7 21.9 28.9 29.1 27.4Z"
                                class="b" />
                            <path d="M27.9 29.6C23.4 31.1 15.1 30.6 17.6 28.6 16.4 28.6 14.6 29.5 14.6 30.5 14.6 32.3 23.6 33.8 30.2 31Z" class="b" />
                            <path d="M18.7 32.7C17.1 32.7 16 33.8 16 34.6 16 37 25.8 37.2 29.6 34.8L27.2 33.1C24.3 34.4 17 34.6 18.7 32.7Z" class="b"
                            />
                            <path d="M36.3 36.6C36.3 35.7 35.2 35.3 34.8 35 37.1 40.4 12.5 40 12.5 36.8 12.5 36.1 14.3 35.4 16 35.7L14.6 34.9C11.3 34.4 9 35.8 9 37 9 42.5 36.3 42.3 36.3 36.6Z"
                                class="b" />
                            <path d="M39 38.6C34.9 42.7 24.3 44.2 13.8 41.7 24.3 46.2 38.9 43.6 39 38.6Z" class="b" />
                        </svg>
